X:1
T:Mercy, 77.77
T:Mercy, 77.77
T:Louis Moreau Gottschalk, 1867
T:Public Domain Courtesy of the Cyber Hymnal™
C:Louis Moreau Gottschalk, 1867
Z:Public Domain
Z:Courtesy of the Cyber Hymnal™
%%score ( 1 2 ) ( 3 4 )
L:1/8
Q:1/4=117
M:3/4
K:Bb
V:1 treble 
V:2 treble 
V:3 bass 
V:4 bass 
V:1
 [DF]4 [^CG]2 | ([DF]2 [FB]2) [Fd]2 | [Fd]4 [Ec]2 | [DB]6 | [DB]4 [=EB]2 | ([FB]2 [EA]2) [DB]2 | %6
 [=Ec]4 (dc) | [Fc]6 | [DF]4 [^CG]2 | ([DF]2 [FB]2) [Fd]2 | [^Fd]4 (ed) | [Gd]6 | (B2 A2) [=CG]2 | %13
 ([DF]2 [Fe]2) [Fd]2 | [Fd]4 [Ec]2 | [DB]6 |] %16
V:2
 x6 | x6 | x6 | x6 | x6 | x6 | x4 =E2 | x6 | x6 | x6 | x4 ^F2 | x6 | ^C4 x2 | x6 | x6 | x6 |] %16
V:3
 (B,2 F,2) [B,,=E,]2 | (F,2 D2) [B,,B,]2 | [F,B,]4 [F,A,]2 | [B,,B,]6 | [G,B,]4 [G,C]2 | %5
 (D2 C2) [G,B,]2 | [G,B,]4 [C,B,]2 | [F,A,]6 | (B,2 F,2) [B,,=E,]2 | (F,2 D2) [B,,B,]2 | %10
 [D,A,]4 [D,C]2 | [G,B,]6 | (G,2 A,2) [E,B,]2 | ([F,B,]2 [A,C]2) B,2 | [F,B,]4 [F,A,]2 | %15
 [B,,B,]6 |] %16
V:4
 B,,4 x2 | B,,4 x2 | x6 | x6 | x6 | F,4 x2 | x6 | x6 | B,,4 x2 | B,,4 x2 | x6 | x6 | E,4 x2 | x6 | %14
 x6 | x6 |] %16

